src/icons/spinner.svg

<svg width="32" height="32" viewBox="0 0 32 32" fill="none" xmlns="http://www.w3.org/2000/svg">
<path d="M16 31.9995C11.726 31.9995 7.708 30.3355 4.686 27.3135C1.664 24.2915 0 20.2735 0 15.9995C0 12.9735 0.849 10.0265 2.456 7.47752C4.019 4.99952 6.227 2.99752 8.842 1.68652L10.186 4.36852C8.06 5.43352 6.264 7.06152 4.994 9.07652C3.689 11.1455 3 13.5385 3 15.9985C3 23.1665 8.832 28.9985 16 28.9985C23.168 28.9985 29 23.1665 29 15.9985C29 13.5395 28.31 11.1455 27.006 9.07652C25.735 7.06152 23.94 5.43352 21.814 4.36852L23.158 1.68652C25.773 2.99652 27.982 4.99952 29.544 7.47752C31.151 10.0265 32 12.9725 32 15.9995C32 20.2735 30.336 24.2915 27.314 27.3135C24.292 30.3355 20.274 31.9995 16 31.9995Z" />
</svg>

<!-- Generated by IcoMoon.io -->
<svg version="1.1" xmlns="http://www.w3.org/2000/svg" width="32" height="32" viewBox="0 0 32 32">
<title>spinner8</title>
<path d="M16 32c-4.274 0-8.292-1.664-11.314-4.686s-4.686-7.040-4.686-11.314c0-3.026 0.849-5.973 2.456-8.522 1.563-2.478 3.771-4.48 6.386-5.791l1.344 2.682c-2.126 1.065-3.922 2.693-5.192 4.708-1.305 2.069-1.994 4.462-1.994 6.922 0 7.168 5.832 13 13 13s13-5.832 13-13c0-2.459-0.69-4.853-1.994-6.922-1.271-2.015-3.066-3.643-5.192-4.708l1.344-2.682c2.615 1.31 4.824 3.313 6.386 5.791 1.607 2.549 2.456 5.495 2.456 8.522 0 4.274-1.664 8.292-4.686 11.314s-7.040 4.686-11.314 4.686z"></path>
</svg>
